X:1
T:Raving Winds
M:3/4
L:1/4
K:C
 z2 G3/4 A/4| c c d3/4- d/4| e G G3/4 A/4| c c d3/4 d/4| e GC/4-E/4 G/2|\
 e e g3/4 e/4| d c c3/4 A/4| c E3/4- D/4 E3/4 G/4| A C G3/4- A/4| c c3/4 c/4 d3/4 d/4|\
 e G G3/4 A/4| c c d3/4 d/4| e GC/4-E/4 G/2| e e g3/4 e/4| d c c3/4 A/4|\
 G E G3/4 E/4| D C z|

